Papirus/64x64/apps/libreoffice-draw.svg

<?xml version="1.0" encoding="UTF-8" standalone="no"?>
<!-- Created with Inkscape (http://www.inkscape.org/) -->

<svg
   width="64"
   height="64"
   viewBox="0 0 64 64"
   version="1.1"
   id="svg5"
   inkscape:version="1.2.2 (1:1.2.2+202305151914+b0a8486541)"
   sodipodi:docname="libreoffice-draw.svg"
   xmlns:inkscape="http://www.inkscape.org/namespaces/inkscape"
   xmlns:sodipodi="http://sodipodi.sourceforge.net/DTD/sodipodi-0.dtd"
   xmlns="http://www.w3.org/2000/svg"
   xmlns:svg="http://www.w3.org/2000/svg">
  <sodipodi:namedview
     id="namedview7"
     pagecolor="#ffffff"
     bordercolor="#000000"
     borderopacity="0.25"
     inkscape:showpageshadow="2"
     inkscape:pageopacity="0.0"
     inkscape:pagecheckerboard="0"
     inkscape:deskcolor="#d1d1d1"
     inkscape:document-units="px"
     showgrid="false"
     inkscape:zoom="12.96875"
     inkscape:cx="32"
     inkscape:cy="32"
     inkscape:window-width="1920"
     inkscape:window-height="1008"
     inkscape:window-x="0"
     inkscape:window-y="0"
     inkscape:window-maximized="1"
     inkscape:current-layer="svg5" />
  <defs
     id="defs2" />
  <path
     d="M 42,5 H 54 V 17 Z M 18,5 h 20 l 16,16 v 32 c 0,4.432 -3.568,8 -8,8 H 18 c -4.432,0 -8,-3.568 -8,-8 V 13 c 0,-4.432 3.568,-8 8,-8 z"
     style="opacity:0.2;fill:#000000;stroke-width:1;stroke-linecap:square"
     id="path1115" />
  <path
     d="m 18,4 h 20 l 16,16 v 32 c 0,4.432 -3.568,8 -8,8 H 18 c -4.432,0 -8,-3.568 -8,-8 V 12 c 0,-4.432 3.568,-8 8,-8 z"
     style="opacity:1;fill:#f3ae16;fill-opacity:1;stroke-width:1;stroke-linecap:square"
     id="path1004" />
  <path
     d="M 42,4 H 54 V 16 Z"
     style="fill:#e8a30c;fill-opacity:1;stroke-width:0.75;stroke-linecap:square"
     id="path1087" />
  <path
     d="m 24,25.000005 c -4.41828,0 -8,3.58173 -8,8 0,4.41828 3.58172,8 8,8 0.10887,-0.006 0.21762,-0.0134 0.32617,-0.0234 l -4.15039,6.45703 c -0.45586,0.66356 0.0192,1.56633 0.82422,1.56641 h 18 c 0.80506,-8e-5 1.28008,-0.90285 0.82422,-1.56641 l -2.84961,-4.43359 H 46 c 1.108,0 2,-0.892 2,-2 v -10 c 0,-1.10799 -0.892,-2 -2,-2 H 36 c -1.108,0 -2,0.89201 -2,2 v 7.37305 l -2.24414,-3.49024 c 0.15583,-0.61568 0.23778,-1.24774 0.24414,-1.88281 0,-4.41827 -3.58172,-8 -8,-8 z m 12,6 h 10 v 10 H 36 Z"
     style="opacity:0.2;fill:#000000;stroke-width:2;stroke-linecap:round;stroke-linejoin:round"
     id="path3196" />
  <path
     d="m 36,27.999995 c -1.108,0 -2,0.892 -2,2 v 10 c 0,1.108 0.892,2 2,2 h 10 c 1.108,0 2,-0.892 2,-2 v -10 c 0,-1.108 -0.892,-2 -2,-2 z m 0,2 h 10 v 10 H 36 Z"
     style="fill:#ffffff;stroke-width:2;stroke-linecap:round;stroke-linejoin:round"
     id="path3140" />
  <circle
     style="fill:#ffffff;stroke-linecap:square"
     id="path3216"
     cx="24"
     cy="32"
     r="8" />
  <path
     d="m 30,31.999995 c -0.32938,-10e-6 -0.63764,0.16216 -0.82422,0.43359 l -9,14 c -0.45586,0.66356 0.0192,1.56633 0.82422,1.56641 h 18 c 0.80506,-8e-5 1.28008,-0.90285 0.82422,-1.56641 l -9,-14 C 30.63764,32.162155 30.32938,31.999985 30,31.999995 Z"
     style="color:#000000;fill:#fde9b6;fill-opacity:1;stroke:none;stroke-width:2;stroke-linecap:round;stroke-linejoin:round;-inkscape-stroke:none"
     id="path3168" />
  <path
     id="path1685"
     style="opacity:0.2;fill:#ffffff;stroke-linecap:square"
     d="m 18,4 c -4.431992,0 -8,3.5680087 -8,8 v 1 c 0,-4.4319912 3.568008,-8 8,-8 0,0 20,0 21,0 L 38,4 Z"
     sodipodi:nodetypes="ssccccs" />
  <path
     id="path1629"
     style="fill:#ffffff;fill-opacity:1;stroke-width:0.75;stroke-linecap:square;opacity:0.2"
     d="M 42 4 L 43 5 L 54 5 L 54 4 L 42 4 z " />
</svg>

<svg xmlns="http://www.w3.org/2000/svg" width="64" height="64" version="1.1">
 <path style="opacity:0.2" d="M 18,5 H 38 L 54,21 V 53 C 54,57.432 50.432,61 46,61 H 18 C 13.568,61 10,57.432 10,53 V 13 C 10,8.568 13.568,5 18,5 Z"/>
 <path style="fill:#f3ae16" d="m 18,4 h 20 l 16,16 v 32 c 0,4.432 -3.568,8 -8,8 H 18 c -4.432,0 -8,-3.568 -8,-8 V 12 c 0,-4.432 3.568,-8 8,-8 z"/>
 <path style="fill:#e8a30c" d="M 42,4 H 54 V 16 Z"/>
 <path style="opacity:0.2" d="m 24,25 c -4.42,0 -8,3.58 -8,8 0,4.42 3.58,8 8,8 0.11,-0.01 0.22,-0.01 0.33,-0.02 l -4.15,6.46 c -0.46,0.66 0.02,1.57 0.82,1.57 h 18 c 0.81,-0 1.28,-0.9 0.82,-1.57 l -2.85,-4.43 H 46 c 1.11,0 2,-0.89 2,-2 v -10 c 0,-1.11 -0.89,-2 -2,-2 H 36 c -1.11,0 -2,0.89 -2,2 v 7.37 l -2.24,-3.49 c 0.16,-0.62 0.24,-1.25 0.24,-1.88 0,-4.42 -3.58,-8 -8,-8 z m 12,6 h 10 v 10 H 36 Z"/>
 <path style="fill:#fafafa" d="M 36,28 C 34.89,28 34,28.89 34,30 V 40 C 34,41.11 34.89,42 36,42 H 46 C 47.11,42 48,41.11 48,40 V 30 C 48,28.89 47.11,28 46,28 Z M 36,30 H 46 V 40 H 36 Z"/>
 <circle style="fill:#fafafa" cx="24" cy="32" r="8"/>
 <path style="fill:#fde9b6" d="m 30,32 c -0.33,-0 -0.64,0.16 -0.82,0.43 l -9,14 c -0.46,0.66 0.02,1.57 0.82,1.57 h 18 c 0.81,-0 1.28,-0.9 0.82,-1.57 l -9,-14 C 30.64,32.16 30.33,32 30,32 Z"/>
 <path style="fill:#ffffff;opacity:0.2" d="M 42 4 L 43 5 L 54 5 L 54 4 L 42 4 z"/>
 <path style="opacity:0.2;fill:#ffffff" d="M 18 4 C 13.568 4 10 7.568 10 12 L 10 13 C 10 8.568 13.568 5 18 5 L 38 5 L 54 21 L 54 20 L 38 4 L 18 4 z"/>
</svg>
